X: 1
T: Opera Reel
S: Roaring Jelly collection
M: C|
R: reel
K: D
A,2 \
|: "D"D2D2 FEFA | DCDF "A"EDCA, | "D"D2D2 FEFA |1 "G"BdAF "A"EDCE :|2 "G"BdAF "A"E2 |]
|: (3ABc | "D"dcec dAFA | Adcd "A"egfe | "D"dcec dAFA | "G"BdAF "A"E2 :|
|: fg | "D"afaf "A"gfge | "D"fafe "A"dcBA | "D"afaf "G"gfge | "A"faec "D" d2 :|
|: (3ABc | "D"defd "A"efge | "D"faec "A"dcBA | "D"defd "G"efge | "A"faec "D"d2 :|
